static/images/bg-dark.svg

<?xml version="1.0" encoding="UTF-8"?>
<svg enable-background="new 0 0 1200 700" version="1.1" viewBox="0 0 1200 700" xml:space="preserve" xmlns="http://www.w3.org/2000/svg">
<style type="text/css">
	.st0{fill:#FFFA72;}
	.st1{fill:#151515;}
	.st2{fill:#1A1A1A;}
	.st3{fill:#1E1E1E;}
	.st4{fill:#222222;}
	.st5{fill:#262626;}
	.st6{fill:#2B2B2B;}
	.st7{fill:#2F2F2F;}
	.st8{fill:#333333;}
	.st9{fill:#373737;}
	.st10{fill:#3C3C3C;}
	.st11{fill:#404040;}
	.st12{fill:#444444;}
</style>
<path class="st0" d="m734.6 34.4c-28.7 61.7-23.3 100.4 16.3 116.1 59.3 23.5 200.3 32.9 259.3 83.9s238.7 11.6 269.4-75.9c30.7-87.6 86.1-222.5-205.8-222.5-194.6 0-307.6 32.8-339.2 98.4z"/>
<path class="st1" d="m312.4 156.2c19.4 172.8 97.2 281.2 233.2 325.1 204.1 65.8 614.2 92.2 861.7 234.9 247.5 142.8 687.1 32.4 631.6-212.7-55.4-245.1-118.5-622.8-935.7-622.8-544.8 0.1-808.4 91.9-790.8 275.5z"/>
<path class="st2" d="m344 146.1c9.1 163.6 76.9 266.1 203.3 307.6 189.6 62.3 576.3 87.2 802.9 222.4 226.6 135.1 648.5 30.7 609.2-201.3-39.3-231.9-78.7-589.4-852.1-589.4-515.6 0-770 86.9-763.3 260.7z"/>
<path class="st3" d="m376.5 135.9c0.2 154.3 58.9 251.1 176 290.2 175.7 58.8 539.2 82.3 746.1 209.8 206.8 127.5 610.2 28.9 585.1-189.9-25.2-218.8-44.1-556.1-773.7-556.1-486.5 0.1-731 82.1-733.5 246z"/>
<path class="st4" d="m409.7 125.8c-7.3 145.1 43.1 236 151.3 272.8 162.3 55.2 502.9 77.3 691 197.2 188.2 119.8 572.2 27.2 559.2-178.5s-14.2-522.7-700.1-522.7c-457.2 0-691 77.1-701.4 231.2z"/>
<path class="st5" d="m443.6 115.6c-13.7 135.8 29.2 220.9 128.7 255.4 149.3 51.7 467.1 72.4 637.6 184.6s534.4 25.5 531.9-167.1c-2.5-192.5 11.3-489.3-630.8-489.3-427.9 0-650.5 72.1-667.4 216.4z"/>
<path class="st6" d="m478.1 105.5c-18.9 126.5 17.2 205.9 108.4 238 136.8 48.2 432 67.5 585.8 172s496.8 23.7 503.3-155.7c6.4-179.4 32.7-456-565.6-456-398.9 0-609.6 67.2-631.9 201.7z"/>
<path class="st7" d="m513.2 95.3c-23.1 117.3 6.9 190.8 90 220.6 124.7 44.7 397.4 62.5 535.4 159.4s459.4 22 473.3-144.3c13.8-166.3 50.3-422.6-504.2-422.6-369.7 0-567.9 62.3-594.5 186.9z"/>
<path class="st8" d="m548.8 85.2c-26.3 108-1.8 175.7 73.5 203.2 112.9 41.1 363.4 57.6 486.3 146.8s422.2 20.3 442.1-132.9 64.4-389.3-446.4-389.3c-340.5 0-525.6 57.4-555.5 172.2z"/>
<path class="st9" d="m585 75c-28.5 98.8-8.9 160.7 58.8 185.8 101.5 37.6 329.8 52.7 438.6 134.2 108.7 81.6 385.2 18.5 409.7-121.5s75-355.9-392-355.9c-311.4 0-483.1 52.5-515.1 157.4z"/>
<path class="st10" d="m621.7 64.8c-29.8 89.5-14.6 145.6 45.8 168.3 90.5 34.1 296.8 47.7 392 121.7 95.2 73.9 348.3 16.8 376.2-110.1s82.4-322.5-340.8-322.5c-282.2 0-439.9 47.5-473.2 142.6z"/>
<path class="st11" d="m658.8 54.7c-30.3 80.2-18.8 130.5 34.4 150.9 79.8 30.6 264.2 42.8 346.6 109.1s311.6 15 341.6-98.7c30-113.8 86.6-289.1-292.8-289.1-252.9-0.1-396.1 42.5-429.8 127.8z"/>
<path class="st12" d="m696.5 44.5c-29.9 71-21.7 115.5 24.5 133.5 69.4 27 232.1 37.8 302.4 96.5 70.4 58.6 275.1 13.3 306-87.3 31-100.7 87.8-255.8-247.8-255.8-223.7 0-352.1 37.7-385.1 113.1z"/>
</svg>

<?xml version="1.0" encoding="utf-8"?>
<!-- Generator: Adobe Illustrator 24.2.3, SVG Export Plug-In . SVG Version: 6.00 Build 0)  -->
<svg version="1.1" id="Layer_1" xmlns="http://www.w3.org/2000/svg" xmlns:xlink="http://www.w3.org/1999/xlink" x="0px" y="0px"
	 viewBox="0 0 1200 700" style="enable-background:new 0 0 1200 700;" xml:space="preserve">
<style type="text/css">
	.st0{fill:#FFFA72;}
	.st1{fill:#151515;}
	.st2{fill:#1A1A1A;}
	.st3{fill:#1E1E1E;}
	.st4{fill:#222222;}
	.st5{fill:#262626;}
	.st6{fill:#2B2B2B;}
	.st7{fill:#2F2F2F;}
	.st8{fill:#333333;}
	.st9{fill:#373737;}
	.st10{fill:#3C3C3C;}
	.st11{fill:#404040;}
	.st12{fill:#444444;}
</style>
<path class="st0" d="M734.6,34.4c-28.7,61.7-23.3,100.4,16.3,116.1c59.3,23.5,200.3,32.9,259.3,83.9c59,51,238.7,11.6,269.4-75.9
	C1310.3,70.9,1365.7-64,1073.8-64C879.2-64,766.2-31.2,734.6,34.4L734.6,34.4z"/>
<path class="st1" d="M312.4,156.2c19.4,172.8,97.2,281.2,233.2,325.1c204.1,65.8,614.2,92.2,861.7,234.9
	c247.5,142.8,687.1,32.4,631.6-212.7c-55.4-245.1-118.5-622.8-935.7-622.8C558.4-119.2,294.8-27.4,312.4,156.2L312.4,156.2z"/>
<path class="st2" d="M344,146.1c9.1,163.6,76.9,266.1,203.3,307.6c189.6,62.3,576.3,87.2,802.9,222.4
	c226.6,135.1,648.5,30.7,609.2-201.3c-39.3-231.9-78.7-589.4-852.1-589.4C591.7-114.6,337.3-27.7,344,146.1L344,146.1z"/>
<path class="st3" d="M376.5,135.9c0.2,154.3,58.9,251.1,176,290.2c175.7,58.8,539.2,82.3,746.1,209.8
	c206.8,127.5,610.2,28.9,585.1-189.9c-25.2-218.8-44.1-556.1-773.7-556.1C623.5-110,379-28,376.5,135.9L376.5,135.9z"/>
<path class="st4" d="M409.7,125.8c-7.3,145.1,43.1,236,151.3,272.8c162.3,55.2,502.9,77.3,691,197.2
	c188.2,119.8,572.2,27.2,559.2-178.5c-13-205.7-14.2-522.7-700.1-522.7C653.9-105.4,420.1-28.3,409.7,125.8L409.7,125.8z"/>
<path class="st5" d="M443.6,115.6C429.9,251.4,472.8,336.5,572.3,371c149.3,51.7,467.1,72.4,637.6,184.6
	c170.5,112.2,534.4,25.5,531.9-167.1c-2.5-192.5,11.3-489.3-630.8-489.3C683.1-100.8,460.5-28.7,443.6,115.6L443.6,115.6z"/>
<path class="st6" d="M478.1,105.5c-18.9,126.5,17.2,205.9,108.4,238c136.8,48.2,432,67.5,585.8,172
	c153.8,104.5,496.8,23.7,503.3-155.7c6.4-179.4,32.7-456-565.6-456C711.1-96.2,500.4-29,478.1,105.5L478.1,105.5z"/>
<path class="st7" d="M513.2,95.3c-23.1,117.3,6.9,190.8,90,220.6c124.7,44.7,397.4,62.5,535.4,159.4c138,96.9,459.4,22,473.3-144.3
	c13.8-166.3,50.3-422.6-504.2-422.6C738-91.6,539.8-29.3,513.2,95.3L513.2,95.3z"/>
<path class="st8" d="M548.8,85.2c-26.3,108-1.8,175.7,73.5,203.2c112.9,41.1,363.4,57.6,486.3,146.8
	c122.9,89.2,422.2,20.3,442.1-132.9C1570.6,149.1,1615.1-87,1104.3-87C763.8-87,578.7-29.6,548.8,85.2L548.8,85.2z"/>
<path class="st9" d="M585,75c-28.5,98.8-8.9,160.7,58.8,185.8c101.5,37.6,329.8,52.7,438.6,134.2c108.7,81.6,385.2,18.5,409.7-121.5
	c24.5-140,75-355.9-392-355.9C788.7-82.4,617-29.9,585,75L585,75z"/>
<path class="st10" d="M621.7,64.8c-29.8,89.5-14.6,145.6,45.8,168.3c90.5,34.1,296.8,47.7,392,121.7
	c95.2,73.9,348.3,16.8,376.2-110.1c27.9-126.9,82.4-322.5-340.8-322.5C812.7-77.8,655-30.3,621.7,64.8L621.7,64.8z"/>
<path class="st11" d="M658.8,54.7c-30.3,80.2-18.8,130.5,34.4,150.9c79.8,30.6,264.2,42.8,346.6,109.1
	c82.4,66.3,311.6,15,341.6-98.7c30-113.8,86.6-289.1-292.8-289.1C835.7-73.2,692.5-30.6,658.8,54.7L658.8,54.7z"/>
<path class="st12" d="M696.5,44.5C666.6,115.5,674.8,160,721,178c69.4,27,232.1,37.8,302.4,96.5c70.4,58.6,275.1,13.3,306-87.3
	c31-100.7,87.8-255.8-247.8-255.8C857.9-68.6,729.5-30.9,696.5,44.5L696.5,44.5z"/>
</svg>
